dist/svgs/geomicons-open/icons/external.svg

<svg xmlns="http://www.w3.org/2000/svg" viewBox="0 0 32 32"><path d="M4 4h8v4H8v16h16v-4h4v8H4zm12 0h12v12l-4-4-8 8-4-4 8-8z"/></svg>

<svg id="external" xmlns="http://www.w3.org/2000/svg" viewBox="0 0 32 32" width="32" height="32" fill="currentcolor">
  <path d="M4 4 L12 4 L12 8 L8 8 L8 24 L24 24 L24 20 L28 20 L28 28 L4 28 z M16 4 L28 4 L28 16 L24 12 L16 20 L12 16 L20 8z"></path>
</svg>
